misc/PieDAO Complete Black.svg

<svg fill="none" height="512" viewBox="0 0 2589 512" width="2589" xmlns="http://www.w3.org/2000/svg" xmlns:xlink="http://www.w3.org/1999/xlink"><mask id="a" height="512" maskUnits="userSpaceOnUse" width="512" x="0" y="0"><circle cx="256" cy="256" fill="#c4c4c4" r="256"/></mask><g fill="#000"><path d="m672.825 455.754c-3.726 0-7.08-1.305-10.061-3.913-2.608-2.981-3.912-6.334-3.912-10.06v-362.7313c0-4.0987 1.304-7.4521 3.912-10.0603 2.609-2.9809 5.962-4.4713 10.061-4.4713h158.171c48.438 0 86.444 10.9919 114.017 32.9756 27.573 21.9833 41.359 54.2143 41.359 96.6913s-13.786 74.334-41.359 95.573c-27.573 20.866-65.579 31.299-114.017 31.299h-63.716v120.724c0 3.726-1.304 7.079-3.912 10.06-2.608 2.608-5.962 3.913-10.061 3.913zm155.376-214.621c15.277 0 27.2-3.912 35.77-11.737 8.943-8.197 13.414-20.121 13.414-35.77 0-14.532-4.099-26.269-12.296-35.211-7.825-8.943-20.121-13.414-36.888-13.414h-62.598v96.132z"/><path d="m1034.61 124.88c-4.1 0-7.45-1.304-10.06-3.912-2.61-2.981-3.92-6.521-3.92-10.619v-51.9789c0-4.0987 1.31-7.4521 3.92-10.0603 2.98-2.9809 6.33-4.4713 10.06-4.4713h69.86c4.1 0 7.45 1.4904 10.06 4.4713 2.98 2.6082 4.47 5.9616 4.47 10.0603v51.9789c0 4.098-1.49 7.638-4.47 10.619-2.61 2.608-5.96 3.912-10.06 3.912zm0 330.874c-3.73 0-7.08-1.305-10.06-3.913-2.61-2.981-3.92-6.334-3.92-10.06v-262.687c0-4.098 1.31-7.452 3.92-10.06 2.98-2.608 6.33-3.913 10.06-3.913h69.86c4.1 0 7.45 1.305 10.06 3.913 2.98 2.608 4.47 5.962 4.47 10.06v262.687c0 4.099-1.49 7.452-4.47 10.06-2.61 2.608-5.96 3.913-10.06 3.913z"/><path d="m1307.71 461.343c-45.46 0-81.23-12.11-107.31-36.329-26.09-24.592-39.5-60.176-40.24-106.752v-17.326c1.49-44.34 15.27-78.992 41.35-103.957 26.09-24.964 61.3-37.447 105.64-37.447 32.04 0 59.06 6.521 81.04 19.562 22.36 12.669 38.94 30.368 49.74 53.096 11.18 22.357 16.77 47.88 16.77 76.571v13.973c0 4.098-1.49 7.638-4.47 10.619-2.61 2.608-5.96 3.912-10.06 3.912h-177.18v3.354c.38 16.767 4.29 30.367 11.74 40.8 7.45 10.06 18.07 15.09 31.86 15.09 8.94 0 16.02-1.676 21.24-5.03 5.59-3.726 10.8-8.383 15.65-13.973 3.35-3.726 5.96-5.961 7.82-6.706 2.24-1.118 5.59-1.677 10.06-1.677h73.22c3.35 0 6.15 1.118 8.38 3.353 2.61 1.863 3.92 4.285 3.92 7.266 0 9.688-5.59 21.052-16.77 34.093-10.81 13.042-26.83 24.22-48.07 33.535-20.86 9.315-45.64 13.973-74.33 13.973zm44.15-181.086v-1.118c0-17.885-3.91-31.672-11.74-41.359-7.82-10.061-18.81-15.091-32.97-15.091s-25.15 5.03-32.98 15.091c-7.45 9.687-11.18 23.474-11.18 41.359v1.118z"/><path d="m1524.94 455.754c-3.72 0-7.08-1.305-10.06-3.913-2.61-2.981-3.91-6.334-3.91-10.06v-362.7313c0-4.0987 1.3-7.4521 3.91-10.0603 2.61-2.9809 5.96-4.4713 10.06-4.4713h147c55.14 0 97.99 13.2275 128.54 39.6829 30.56 26.082 46.58 63.715 48.07 112.899.37 10.805.56 25.151.56 43.036s-.19 32.044-.56 42.477c-3.73 102.094-61.67 153.141-173.82 153.141zm147-83.837c23.47 0 40.8-5.589 51.97-16.767 11.18-11.178 17.14-29.063 17.89-53.655.74-10.806 1.12-24.778 1.12-41.918s-.38-30.926-1.12-41.359c-.75-23.847-7.27-41.359-19.56-52.538-11.93-11.55-29.62-17.326-53.1-17.326h-53.09v223.563z"/><path d="m1859.34 455.754c-2.98 0-5.77-1.118-8.38-3.354-2.24-2.608-3.35-5.403-3.35-8.384 0-2.235.18-3.912.55-5.03l130.23-358.2596c3.73-10.8055 11.18-16.2083 22.36-16.2083h87.19c11.17 0 18.63 5.4028 22.35 16.2083l130.23 358.2596c.37 1.118.56 2.795.56 5.03 0 2.981-1.31 5.776-3.92 8.384-2.23 2.236-4.84 3.354-7.82 3.354h-72.66c-8.94 0-15.28-4.099-19-12.296l-20.12-54.215h-146.44l-20.12 54.215c-3.72 8.197-10.06 12.296-19 12.296zm135.26-150.347h99.48l-49.74-142.521z"/><path d="m2414.48 461.343c-52.91 0-94.64-12.855-125.19-38.565s-46.76-63.529-48.63-113.458c-.37-10.433-.56-26.455-.56-48.066s.19-37.82.56-48.625c1.49-49.184 17.7-87.004 48.63-113.4586 31.3-26.8276 73.03-40.2414 125.19-40.2414 51.8 0 93.16 13.4138 124.08 40.2414 31.3 26.4546 47.7 64.2746 49.19 113.4586.74 21.611 1.11 37.819 1.11 48.625 0 11.178-.37 27.2-1.11 48.066-1.87 49.929-18.08 87.748-48.63 113.458-30.18 25.71-71.73 38.565-124.64 38.565zm0-83.837c19.38 0 34.84-5.775 46.39-17.326 11.55-11.923 17.7-29.994 18.45-54.214.74-21.611 1.12-37.074 1.12-46.389s-.38-24.406-1.12-45.272c-.75-24.219-6.9-42.104-18.45-53.655-11.55-11.923-27.01-17.885-46.39-17.885-19.74 0-35.39 5.962-46.94 17.885-11.55 11.551-17.7 29.436-18.45 53.655-.37 10.433-.56 25.524-.56 45.272 0 20.121.19 35.584.56 46.389.75 24.22 6.9 42.291 18.45 54.214 11.55 11.551 27.2 17.326 46.94 17.326z"/></g><g mask="url(#a)"><path d="m-48.3542-491.769h747v1344h-747z" transform="matrix(.96592583 .25881905 -.25881905 .96592583 -128.926812 -4.241634)"/></g></svg>

<svg width="2589" height="512" viewBox="0 0 2589 512" fill="none" xmlns="http://www.w3.org/2000/svg">
<path d="M672.825 455.754C669.099 455.754 665.745 454.449 662.764 451.841C660.156 448.86 658.852 445.507 658.852 441.781V79.0497C658.852 74.951 660.156 71.5976 662.764 68.9894C665.373 66.0085 668.726 64.5181 672.825 64.5181H830.996C879.434 64.5181 917.44 75.51 945.013 97.4937C972.586 119.477 986.372 151.708 986.372 194.185C986.372 236.662 972.586 268.519 945.013 289.758C917.44 310.624 879.434 321.057 830.996 321.057H767.28V441.781C767.28 445.507 765.976 448.86 763.368 451.841C760.76 454.449 757.406 455.754 753.307 455.754H672.825ZM828.201 241.133C843.478 241.133 855.401 237.221 863.971 229.396C872.914 221.199 877.385 209.275 877.385 193.626C877.385 179.094 873.286 167.357 865.089 158.415C857.264 149.472 844.968 145.001 828.201 145.001H765.603V241.133H828.201Z" fill="black"/>
<path d="M1034.61 124.88C1030.51 124.88 1027.16 123.576 1024.55 120.968C1021.94 117.987 1020.63 114.447 1020.63 110.349V58.3701C1020.63 54.2714 1021.94 50.918 1024.55 48.3098C1027.53 45.3289 1030.88 43.8385 1034.61 43.8385H1104.47C1108.57 43.8385 1111.92 45.3289 1114.53 48.3098C1117.51 50.918 1119 54.2714 1119 58.3701V110.349C1119 114.447 1117.51 117.987 1114.53 120.968C1111.92 123.576 1108.57 124.88 1104.47 124.88H1034.61ZM1034.61 455.754C1030.88 455.754 1027.53 454.449 1024.55 451.841C1021.94 448.86 1020.63 445.507 1020.63 441.781V179.094C1020.63 174.996 1021.94 171.642 1024.55 169.034C1027.53 166.426 1030.88 165.121 1034.61 165.121H1104.47C1108.57 165.121 1111.92 166.426 1114.53 169.034C1117.51 171.642 1119 174.996 1119 179.094V441.781C1119 445.88 1117.51 449.233 1114.53 451.841C1111.92 454.449 1108.57 455.754 1104.47 455.754H1034.61Z" fill="black"/>
<path d="M1307.71 461.343C1262.25 461.343 1226.48 449.233 1200.4 425.014C1174.31 400.422 1160.9 364.838 1160.16 318.262V300.936C1161.65 256.596 1175.43 221.944 1201.51 196.979C1227.6 172.015 1262.81 159.532 1307.15 159.532C1339.19 159.532 1366.21 166.053 1388.19 179.094C1410.55 191.763 1427.13 209.462 1437.93 232.19C1449.11 254.547 1454.7 280.07 1454.7 308.761V322.734C1454.7 326.832 1453.21 330.372 1450.23 333.353C1447.62 335.961 1444.27 337.265 1440.17 337.265H1262.99V340.619C1263.37 357.386 1267.28 370.986 1274.73 381.419C1282.18 391.479 1292.8 396.509 1306.59 396.509C1315.53 396.509 1322.61 394.833 1327.83 391.479C1333.42 387.753 1338.63 383.096 1343.48 377.506C1346.83 373.78 1349.44 371.545 1351.3 370.8C1353.54 369.682 1356.89 369.123 1361.36 369.123H1434.58C1437.93 369.123 1440.73 370.241 1442.96 372.476C1445.57 374.339 1446.88 376.761 1446.88 379.742C1446.88 389.43 1441.29 400.794 1430.11 413.835C1419.3 426.877 1403.28 438.055 1382.04 447.37C1361.18 456.685 1336.4 461.343 1307.71 461.343ZM1351.86 280.257V279.139C1351.86 261.254 1347.95 247.467 1340.12 237.78C1332.3 227.719 1321.31 222.689 1307.15 222.689C1292.99 222.689 1282 227.719 1274.17 237.78C1266.72 247.467 1262.99 261.254 1262.99 279.139V280.257H1351.86Z" fill="black"/>
<path d="M1524.94 455.754C1521.22 455.754 1517.86 454.449 1514.88 451.841C1512.27 448.86 1510.97 445.507 1510.97 441.781V79.0497C1510.97 74.951 1512.27 71.5976 1514.88 68.9894C1517.49 66.0085 1520.84 64.5181 1524.94 64.5181H1671.94C1727.08 64.5181 1769.93 77.7456 1800.48 104.201C1831.04 130.283 1847.06 167.916 1848.55 217.1C1848.92 227.905 1849.11 242.251 1849.11 260.136C1849.11 278.021 1848.92 292.18 1848.55 302.613C1844.82 404.707 1786.88 455.754 1674.73 455.754H1524.94ZM1671.94 371.917C1695.41 371.917 1712.74 366.328 1723.91 355.15C1735.09 343.972 1741.05 326.087 1741.8 301.495C1742.54 290.689 1742.92 276.717 1742.92 259.577C1742.92 242.437 1742.54 228.651 1741.8 218.218C1741.05 194.371 1734.53 176.859 1722.24 165.68C1710.31 154.13 1692.62 148.354 1669.14 148.354H1616.05V371.917H1671.94Z" fill="black"/>
<path d="M1859.34 455.754C1856.36 455.754 1853.57 454.636 1850.96 452.4C1848.72 449.792 1847.61 446.997 1847.61 444.016C1847.61 441.781 1847.79 440.104 1848.16 438.986L1978.39 80.7264C1982.12 69.9209 1989.57 64.5181 2000.75 64.5181H2087.94C2099.11 64.5181 2106.57 69.9209 2110.29 80.7264L2240.52 438.986C2240.89 440.104 2241.08 441.781 2241.08 444.016C2241.08 446.997 2239.77 449.792 2237.16 452.4C2234.93 454.636 2232.32 455.754 2229.34 455.754H2156.68C2147.74 455.754 2141.4 451.655 2137.68 443.458L2117.56 389.243H1971.12L1951 443.458C1947.28 451.655 1940.94 455.754 1932 455.754H1859.34ZM1994.6 305.407H2094.08L2044.34 162.886L1994.6 305.407Z" fill="black"/>
<path d="M2414.48 461.343C2361.57 461.343 2319.84 448.488 2289.29 422.778C2258.74 397.068 2242.53 359.249 2240.66 309.32C2240.29 298.887 2240.1 282.865 2240.1 261.254C2240.1 239.643 2240.29 223.434 2240.66 212.629C2242.15 163.445 2258.36 125.625 2289.29 99.1704C2320.59 72.3428 2362.32 58.929 2414.48 58.929C2466.28 58.929 2507.64 72.3428 2538.56 99.1704C2569.86 125.625 2586.26 163.445 2587.75 212.629C2588.49 234.24 2588.86 250.448 2588.86 261.254C2588.86 272.432 2588.49 288.454 2587.75 309.32C2585.88 359.249 2569.67 397.068 2539.12 422.778C2508.94 448.488 2467.39 461.343 2414.48 461.343ZM2414.48 377.506C2433.86 377.506 2449.32 371.731 2460.87 360.18C2472.42 348.257 2478.57 330.186 2479.32 305.966C2480.06 284.355 2480.44 268.892 2480.44 259.577C2480.44 250.262 2480.06 235.171 2479.32 214.305C2478.57 190.086 2472.42 172.201 2460.87 160.65C2449.32 148.727 2433.86 142.765 2414.48 142.765C2394.74 142.765 2379.09 148.727 2367.54 160.65C2355.99 172.201 2349.84 190.086 2349.09 214.305C2348.72 224.738 2348.53 239.829 2348.53 259.577C2348.53 279.698 2348.72 295.161 2349.09 305.966C2349.84 330.186 2355.99 348.257 2367.54 360.18C2379.09 371.731 2394.74 377.506 2414.48 377.506Z" fill="black"/>
<mask id="mask0" mask-type="alpha" maskUnits="userSpaceOnUse" x="0" y="0" width="512" height="512">
<circle cx="256" cy="256" r="256" fill="#C4C4C4"/>
</mask>
<g mask="url(#mask0)">
<rect x="-48.3542" y="-491.769" width="747" height="1344" transform="rotate(15 -48.3542 -491.769)"/>
</g>
</svg>
